X:1
T:James Gibb editions
T:Psalm 60 (Becker) - Schütz
%%score [ ( 1 2 ) ( 3 4 ) ]
L:1/8
Q:1/4=100
M:2/2
K:C
V:1 treble nm="Soprano Alto" snm="S. A."
V:2 treble 
V:3 bass nm="Tenor Bass" snm="T. B."
V:4 bass 
V:1
"^Cornelius Becker\n(1561-1604)""^Psalm 60, SWV 157""^Heinrich Schütz\n(1585-1672)" A4 d2 B2 | %1
w: ~Ach Gott, der|
w: |
w: und weit un-|
 c2 A2 G2 F2 | E2 E2 F2 G2 | A2 B2 c4 | B4 :| d4 e2 c2 |[M:2/2] B2 A2 B2 c2 | d4 e4 | d2 c2 f2 e2 | %9
w: du vor die- ser|Zeit uns, dein Volk,|hast ver- sto-|ßen|||||
w: ||||ach Herr, um||||
w: ter die Feind zer-|streut in dei- nem|Zorn so gro-|ße,|||||
 d2 d2 c4 | G4 B2 c2 | (d3 c B2) A2- | A2 ^G2 A8 |] %13
w: |* * ge-|trö\- * * stet|* wer- den.|
w: ||||
w: ||||
V:2
 E4 F2 E2 | E2 F2 E2 D2 | ^C2 C2 D2 E2 | F2 G4 ^F2 | G4 :| G4 G2 G2 |[M:2/2] G2 E2 G2 G2 | ^F4 G4 | %8
w: ||||||dei- nes Na- mens|Ehr laß|
 G2 E2 D2 G2 | A2 G2 G4 | D4 G2 G2 | F4 F4 | E4 E8 |] %13
w: uns nach un- serm|Trüb- sal schwer|wied- rum ge-|trö- stet|wer- den.|
V:3
 C4 A,2 ^G,2 | A,2 C2 C2 A,2 | A,2 A,2 A,2 C2 | C2 E2 (E2 DC) | D4 :| B,4 C2 E2 | %6
w: ||||||
[M:2/2]"^2. Die Erd hast du durch deine Hand\nzerrissen und beweget,\nheil ihre Brüch und hilf dem Land, \nschaff, daß dein Zorn sich lege, \nDu hast dein´m Volk ein Hart´s erzeigt, \nuns manche Not und Sorg bereit, \ndie wir kaum konnten tragen.\n\n3. Doch hast du durch dein große Treu\nein Gnadenzeichen geben\nallen, die nur von Herzen frei \nin deinem Dienste leben. \nSie harrten auf das Zeichen dein, \ndaher ihnen dein Hülf erschein, \ndrob sie so fröhlich wurden.\n\n4. Hilf, Herr, durch deine rechte Hand, \ndaß wir errettet werden,\nerhör uns bald und m achs bekannt, \ndaß du uns liebst auf Erden.\nGott redet in sein´m Heiligtum, \ndas schafft mein´m Herzen Freud und Wonn, \ner wird uns wahrlich helfen." D2 C2 D2 E2 | %7
w: |
 A,4 C4 | B,2 A,2 A,2 C2 | C2 B,2 C4 | B,4 D2 G,2 | (A,2 B,C D2) C2 | B,4 A,8 |] %13
w: |||* * ge-|trö\- * * * stet|wer- den.|
V:4
 A,4 D,2 E,2 | A,2 F,2 C,2 D,2 | A,,2 A,,2 D,2 C,2 | F,2 E,2 A,4 | G,4 :| G,4 C2 C,2 | %6
w: ||||||
[M:2/2] G,2 A,2 G,2 E,2 | D,4 C,4 | G,2 A,2 D,2 E,2 | F,2 G,2 C,4 | G,4 G,2 E,2 | D,4 D,4 | %12
w: ||||* * ge-|trö- stet|
 E,4 A,,8 |] %13
w: wer- den.|

